X:314
T:High Up in the Glen
R:Reel
B:The Athole Collection
M:C|
L:1/8
K:G Minor
d|gaba agfd|cdfg agfa|gaba agfd|cAfA G<G G:|
c|B/c/d BG BdgB|A/B/c AF Acfc|B/c/d BG GdgB|cAfA G<G Gc|
B/c/d BG BdgB|A/B/c AF Acfc|Bcd=e fgfd|cAfA G<G G||

